X: 1
T: Reel Joseph
C: Marcel Messervier
R: reel
Z: 2009 John Chambers <jc:trillian.mit.edu>
M: C|
L: 1/8
K: D
A "A7"Bcde \
| "D"f3f fafd | A2~F2 ~E2D2 \
| "G"G3G GDGB | "Em"ddd2- dedB \
| "A"c2cd cAce | a2~g2 ~f2~e2 |
|1,3 "D"d2cd fedc | "Em"B3 \
:|2 "D"d2~A2 "A"BAFA | "D"d3 \
:|4 "D"d2~A2 "A"BAFA | "D"d2zd "E7"ddcd \
|: "A"e{f}ece a3e | efed ~c2Ac |
| "E7"BABc d2~B2 | "A"AEAB ccAc \
| "A"e{f}ece a3e | efed "F#m"~c2Ac |\
"Bm"BABc "E7"d2~B2 |1 "A"AB (3cBA a2ze :|2 "A"A3 |]
